X: 1
T: Andowin' At Da Bow
R: Reel
M: 4/4
L: 1/8
K: G
|: A | BGAG E2D2 | BGAG BGAd | BGAG E2DE | GABA G3 :|
g | egdB AGE2 | egdg egdg | egdB AGE2 | eggg afg2 |
egdg egdg | egdB AGED | GABG E2DE | GABA G3 ||